web/src/icons/toilet.svg

<?xml version="1.0" encoding="UTF-8"?>
<svg id="Layer_1" data-name="Layer 1" xmlns="http://www.w3.org/2000/svg" viewBox="0 0 139.23633 307.46436">
  <defs>
    <style>
      .cls-1 {
        fill: #fff;
      }
    </style>
  </defs>
  <g>
    <path class="cls-1" d="M69.61676,211.20425c-11.48291,0-22.00537-2.72266-30.4292-7.87402-8.40771-5.1416-14.42969-12.5625-16.95654-20.89551-2.03223-6.70215-.79346-13.57031,3.48682-19.34082,8.97559-12.10059,29.25781-16.39355,43.89893-16.39355,14.64258,0,34.92578,4.29297,43.90137,16.39355,4.28027,5.77051,5.51904,12.63867,3.4873,19.33984-2.52734,8.33398-8.5498,15.75488-16.95752,20.89648-8.42432,5.15137-18.94727,7.87402-30.43115,7.87402Zm-23.9624-34.52441c3.13477,6.91504,14.15283,10.52441,23.9624,10.52441s20.8291-3.60938,23.96484-10.52441c-2.7959-2.41699-11.95947-5.97949-23.96484-5.97949s-21.16748,3.5625-23.9624,5.97949Zm48.60547,.7373h0Z"/>
    <path class="cls-1" d="M69.61822,307.46401c-29.91553,0-56.15723-15.72949-56.15723-33.66113,0-1.38965,.24121-2.76855,.71338-4.07617l11.36719-31.47656c1.19971-3.32227,3.80225-5.94629,7.11377-7.1748,3.31201-1.22949,6.99609-.93555,10.07227,.80078,7.59131,4.28613,16.63867,6.45898,26.89062,6.45898,10.25342,0,19.2998-2.17383,26.88867-6.45996,3.07666-1.7373,6.76074-2.0293,10.07324-.80371,3.31201,1.22852,5.91504,3.85352,7.11523,7.17578l11.36963,31.47949c.47217,1.30664,.71338,2.68652,.71338,4.07617,0,17.93164-26.24316,33.66113-56.16016,33.66113Zm-31.31201-33.90039c3.7583,3.66406,15.26514,9.90039,31.31201,9.90039,16.04834,0,27.55664-6.23633,31.31494-9.90039l-5.47021-15.14648c-7.97168,2.60449-16.61768,3.91797-25.84473,3.91797-9.22559,0-17.87109-1.31348-25.84277-3.91699l-5.46924,15.14551Zm-1.14453-1.4209h0Zm64.9165,0h0Z"/>
    <path class="cls-1" d="M69.61676,219.07241C18.28863,219.07241,.00006,191.94644,.00006,166.56069,.00006,158.19351,3.32574,145.71206,20.60601,137.38589,7.3482,126.52261,.00103,110.38296,.00103,90.57436,.00103,34.7062,26.67633,.00015,69.61724,.00015s69.61914,34.70605,69.61914,90.57422c0,19.80957-7.34717,35.94922-20.60596,46.8125,17.27686,8.3252,20.60547,20.80762,20.60547,29.17383,0,25.38574-18.28906,52.51172-69.61914,52.51172Zm-23.9624-42.39258c3.13477,6.91504,14.15283,10.52441,23.9624,10.52441s20.8291-3.60938,23.96484-10.52441c-2.7959-2.41699-11.95947-5.97949-23.96484-5.97949s-21.16748,3.5625-23.9624,5.97949Zm59.86719,2.27246h0Zm-78.63184-17.32227c-1.50439,1.23633-2.45557,2.55273-2.77246,3.91699,.4751-.83594,1.00879-1.65527,1.60059-2.45312,.37158-.50098,.76318-.98926,1.17188-1.46387Zm85.45654,.00098c.40918,.47461,.80078,.96191,1.17188,1.46289,.5918,.79785,1.12549,1.61719,1.60059,2.45312-.31689-1.36426-1.26758-2.68066-2.77246-3.91602ZM69.61724,24.00015c-13.71533,0-45.61621,6.4873-45.61621,66.57422,0,21.29492,11.49561,33.84473,34.16699,37.2998,5.86133,.89355,10.19189,5.93359,10.19189,11.86328v1.47754c0,1.98828-.48535,3.87109-1.34814,5.5293,1.77148-.05859,3.43848-.05859,5.20996,0-.86279-1.6582-1.34814-3.54102-1.34814-5.5293v-1.47754c0-5.92969,4.33057-10.96973,10.19238-11.86328,22.67383-3.4541,34.17041-16.00391,34.17041-37.2998,0-60.08691-31.90283-66.57422-45.61914-66.57422Z"/>
    <path class="cls-1" d="M69.61822,252.21597c-30.9585,0-53.63721-16.77637-63.85938-47.23926-1.72852-5.15137,.21973-10.82129,4.75-13.82227,4.53027-3,10.51172-2.58105,14.58008,1.01953,.95264,.84277,1.99121,1.66699,3.08691,2.44922,4.75732,3.39746,10.63379,6.02148,17.46826,7.7998,7.05127,1.83691,15.11572,2.76758,23.97168,2.76758,8.85742,0,16.92334-.93066,23.97266-2.7666,.00098-.00098,.00195-.00098,.00293-.00098,6.83203-1.77734,12.70996-4.40234,17.4707-7.7998,1.09521-.7832,2.13477-1.60742,3.08643-2.4502,4.06787-3.60352,10.05029-4.02148,14.58057-1.02148,4.53125,3,6.48047,8.6709,4.75146,13.82227-10.22266,30.46484-32.90283,47.24219-63.8623,47.24219Z"/>
  </g>
  <g>
    <path class="cls-1" d="M69.6167,158.7002c-19.82715,0-39.53027,8.28564-35.90234,20.25244,3.24609,10.7041,16.0752,20.25195,35.90234,20.25195,19.82959,0,32.65869-9.54785,35.90479-20.25195,3.62793-11.9668-16.0752-20.25244-35.90479-20.25244Z"/>
    <path class="cls-1" d="M69.61816,250.33545c-12.43945,0-23.44727-2.73438-32.79004-8.00928l-11.36719,31.47705c0,9.16846,19.76904,21.66113,44.15723,21.66113,24.39111,0,44.16016-12.49268,44.16016-21.66113l-11.36963-31.47998c-9.34277,5.27783-20.35059,8.01221-32.79053,8.01221Z"/>
    <path class="cls-1" d="M82.87354,141.21533v-1.47803c23.77344-3.62158,44.36279-17.75928,44.36279-49.16309,0-48.28857-21.01074-78.57422-57.61914-78.57422-36.60547,0-57.61621,30.28564-57.61621,78.57422,0,31.40283,20.58789,45.54053,44.35889,49.16309v1.47803c-23.77148,1.86719-44.35986,9.15527-44.35986,25.3457,0,24.89697,21.01123,40.51123,57.6167,40.51123,36.60791,0,57.61914-15.61426,57.61914-40.51123,0-16.19043-20.58936-23.47852-44.3623-25.3457Zm22.64795,37.7373c-3.24609,10.7041-16.0752,20.25195-35.90479,20.25195-19.82715,0-32.65625-9.54785-35.90234-20.25195-3.62793-11.9668,16.0752-20.25244,35.90234-20.25244,19.82959,0,39.53271,8.28564,35.90479,20.25244Z"/>
    <path class="cls-1" d="M96.61279,214.03613c-8.04297,2.09521-17.125,3.15479-26.99707,3.15479-9.86914,0-18.95166-1.05957-26.99414-3.15479-8.25537-2.14795-15.46289-5.39355-21.41846-9.64648-1.43213-1.02197-2.78809-2.09717-4.06787-3.23047,6.41797,19.12598,20.72754,39.05664,52.48291,39.05664,31.7583,0,46.06787-19.93311,52.48584-39.05908-1.28027,1.1333-2.63867,2.21094-4.07031,3.23291-5.95801,4.25293-13.16309,7.49854-21.4209,9.64648Z"/>
  </g>
  <g>
    <path d="M69.61816,250.33545c-12.43945,0-23.44727-2.73438-32.79004-8.00928l-11.36719,31.47705c0,9.16846,19.76904,21.66113,44.15723,21.66113,24.39111,0,44.16016-12.49268,44.16016-21.66113l-11.36963-31.47998c-9.34277,5.27783-20.35059,8.01221-32.79053,8.01221Z"/>
    <path d="M82.87354,141.21533v-1.47803c23.77344-3.62158,44.36279-17.75928,44.36279-49.16309,0-48.28857-21.01074-78.57422-57.61914-78.57422-36.60547,0-57.61621,30.28564-57.61621,78.57422,0,31.40283,20.58789,45.54053,44.35889,49.16309v1.47803c-23.77148,1.86719-44.35986,9.15527-44.35986,25.3457,0,24.89697,21.01123,40.51123,57.6167,40.51123,36.60791,0,57.61914-15.61426,57.61914-40.51123,0-16.19043-20.58936-23.47852-44.3623-25.3457Zm22.64795,37.7373c-3.24609,10.7041-16.0752,20.25195-35.90479,20.25195-19.82715,0-32.65625-9.54785-35.90234-20.25195-3.62793-11.9668,16.0752-20.25244,35.90234-20.25244,19.82959,0,39.53271,8.28564,35.90479,20.25244Z"/>
    <path d="M96.61279,214.03613c-8.04297,2.09521-17.125,3.15479-26.99707,3.15479-9.86914,0-18.95166-1.05957-26.99414-3.15479-8.25537-2.14795-15.46289-5.39355-21.41846-9.64648-1.43213-1.02197-2.78809-2.09717-4.06787-3.23047,6.41797,19.12598,20.72754,39.05664,52.48291,39.05664,31.7583,0,46.06787-19.93311,52.48584-39.05908-1.28027,1.1333-2.63867,2.21094-4.07031,3.23291-5.95801,4.25293-13.16309,7.49854-21.4209,9.64648Z"/>
  </g>
</svg>

<?xml version="1.0" encoding="UTF-8" standalone="no"?>
<!DOCTYPE svg PUBLIC "-//W3C//DTD SVG 1.1//EN" "http://www.w3.org/Graphics/SVG/1.1/DTD/svg11.dtd">
<svg width="100%" height="100%" viewBox="0 0 30 67" version="1.1" xmlns="http://www.w3.org/2000/svg" xmlns:xlink="http://www.w3.org/1999/xlink" xml:space="preserve" xmlns:serif="http://www.serif.com/" style="fill-rule:evenodd;clip-rule:evenodd;stroke-linejoin:round;stroke-miterlimit:2;">
    <g transform="matrix(0.215461,0,0,0.215461,0,0)">
        <g>
            <path d="M69.617,211.204C58.134,211.204 47.611,208.482 39.188,203.33C30.78,198.189 24.758,190.768 22.231,182.435C20.199,175.733 21.438,168.864 25.718,163.094C34.693,150.993 54.976,146.7 69.617,146.7C84.259,146.7 104.543,150.993 113.518,163.094C117.798,168.864 119.037,175.733 117.005,182.434C114.478,190.768 108.456,198.189 100.048,203.33C91.624,208.482 81.101,211.204 69.617,211.204L69.617,211.204ZM45.654,176.68C48.789,183.595 59.807,187.204 69.617,187.204C79.426,187.204 90.446,183.595 93.582,176.68C90.786,174.263 81.622,170.7 69.617,170.7C57.611,170.7 48.449,174.263 45.654,176.68Z" style="fill:white;fill-rule:nonzero;"/>
            <path d="M69.618,307.464C39.703,307.464 13.461,291.735 13.461,273.803C13.461,272.413 13.702,271.034 14.174,269.727L25.542,238.25C26.741,234.928 29.344,232.304 32.655,231.075C35.967,229.846 39.651,230.14 42.728,231.876C50.319,236.162 59.366,238.335 69.618,238.335C79.872,238.335 88.918,236.161 96.507,231.875C99.584,230.138 103.268,229.846 106.58,231.071C109.892,232.3 112.495,234.925 113.695,238.247L125.065,269.727C125.537,271.033 125.778,272.413 125.778,273.803C125.778,291.735 99.535,307.464 69.618,307.464L69.618,307.464ZM38.306,273.564C42.065,277.228 53.571,283.464 69.618,283.464C85.667,283.464 97.175,277.228 100.933,273.564L95.463,258.417C87.491,261.022 78.845,262.335 69.618,262.335C60.393,262.335 51.747,261.022 43.775,258.418L38.306,273.564L38.306,273.564Z" style="fill:white;fill-rule:nonzero;"/>
            <path d="M69.617,219.072C18.289,219.072 0,191.946 0,166.561C0,158.194 3.326,145.712 20.606,137.386C7.348,126.523 0.001,110.383 0.001,90.574C0.001,34.706 26.676,0 69.617,0C112.558,0 139.236,34.706 139.236,90.574C139.236,110.384 131.889,126.524 118.63,137.387C135.907,145.712 139.236,158.194 139.236,166.561C139.236,191.946 120.947,219.072 69.617,219.072L69.617,219.072ZM45.654,176.68C48.789,183.595 59.807,187.204 69.617,187.204C79.426,187.204 90.446,183.595 93.582,176.68C90.786,174.263 81.622,170.7 69.617,170.7C57.611,170.7 48.449,174.263 45.654,176.68ZM26.89,161.63C25.385,162.866 24.434,164.183 24.117,165.547C24.592,164.711 25.126,163.892 25.718,163.094C26.089,162.593 26.481,162.105 26.89,161.63L26.89,161.63ZM112.346,161.631C112.755,162.106 113.147,162.593 113.518,163.094C114.11,163.892 114.644,164.711 115.119,165.547C114.802,164.183 113.851,162.866 112.346,161.631L112.346,161.631ZM69.617,24C55.902,24 24.001,30.487 24.001,90.574C24.001,111.869 35.497,124.419 58.168,127.874C64.029,128.768 68.36,133.808 68.36,139.737L68.36,141.215C68.36,143.203 67.875,145.086 67.012,146.744C68.783,146.686 70.45,146.686 72.222,146.744C71.359,145.086 70.874,143.203 70.874,141.215L70.874,139.737C70.874,133.808 75.204,128.768 81.066,127.874C103.74,124.42 115.236,111.87 115.236,90.574C115.236,30.487 83.334,24 69.617,24Z" style="fill:white;fill-rule:nonzero;"/>
            <path d="M69.618,252.216C38.66,252.216 15.981,235.44 5.759,204.977C4.03,199.825 5.979,194.155 10.509,191.154C15.039,188.154 21.021,188.573 25.089,192.174C26.042,193.017 27.08,193.841 28.176,194.623C32.933,198.021 38.81,200.645 45.644,202.423C52.695,204.26 60.76,205.191 69.616,205.191C78.473,205.191 86.539,204.26 93.588,202.424C93.589,202.423 93.59,202.423 93.591,202.423C100.423,200.646 106.301,198.021 111.062,194.623C112.157,193.84 113.197,193.016 114.148,192.173C118.216,188.569 124.199,188.152 128.729,191.152C133.26,194.152 135.21,199.822 133.481,204.974C123.258,235.439 100.578,252.216 69.618,252.216Z" style="fill:white;fill-rule:nonzero;"/>
        </g>
        <g>
            <path d="M69.617,158.7C49.79,158.7 30.086,166.986 33.714,178.953C36.96,189.657 49.79,199.205 69.617,199.205C89.446,199.205 102.275,189.657 105.521,178.953C109.149,166.986 89.446,158.7 69.617,158.7Z" style="fill:white;fill-rule:nonzero;"/>
            <path d="M69.618,250.335C57.179,250.335 46.171,247.601 36.828,242.326L25.461,273.803C25.461,282.972 45.23,295.464 69.618,295.464C94.009,295.464 113.778,282.972 113.778,273.803L102.409,242.323C93.066,247.601 82.058,250.335 69.618,250.335Z" style="fill:white;fill-rule:nonzero;"/>
            <path d="M82.874,141.215L82.874,139.737C106.647,136.116 127.236,121.978 127.236,90.574C127.236,42.286 106.226,12 69.617,12C33.012,12 12.001,42.286 12.001,90.574C12.001,121.977 32.589,136.115 56.36,139.737L56.36,141.215C32.588,143.083 12,150.371 12,166.561C12,191.458 33.011,207.072 69.617,207.072C106.225,207.072 127.236,191.458 127.236,166.561C127.236,150.371 106.646,143.083 82.874,141.215L82.874,141.215ZM105.521,178.953C102.275,189.657 89.446,199.205 69.617,199.205C49.79,199.205 36.96,189.657 33.714,178.953C30.086,166.986 49.79,158.7 69.617,158.7C89.446,158.7 109.149,166.986 105.521,178.953Z" style="fill:white;fill-rule:nonzero;"/>
            <path d="M96.613,214.036C88.57,216.131 79.488,217.191 69.616,217.191C59.747,217.191 50.664,216.131 42.622,214.036C34.366,211.888 27.159,208.643 21.203,204.39C19.771,203.368 18.415,202.292 17.135,201.159C23.553,220.285 37.863,240.216 69.618,240.216C101.376,240.216 115.686,220.283 122.104,201.157C120.824,202.29 119.465,203.368 118.034,204.39C112.076,208.643 104.871,211.888 96.613,214.036Z" style="fill:white;fill-rule:nonzero;"/>
        </g>
    </g>
    <g transform="matrix(0.215461,0,0,0.215461,0,0)">
        <g>
            <path d="M69.618,250.335C57.179,250.335 46.171,247.601 36.828,242.326L25.461,273.803C25.461,282.972 45.23,295.464 69.618,295.464C94.009,295.464 113.778,282.972 113.778,273.803L102.409,242.323C93.066,247.601 82.058,250.335 69.618,250.335Z" style="fill:rgb(0,93,150);fill-rule:nonzero;"/>
            <path d="M82.874,141.215L82.874,139.737C106.647,136.116 127.236,121.978 127.236,90.574C127.236,42.286 106.226,12 69.617,12C33.012,12 12.001,42.286 12.001,90.574C12.001,121.977 32.589,136.115 56.36,139.737L56.36,141.215C32.588,143.083 12,150.371 12,166.561C12,191.458 33.011,207.072 69.617,207.072C106.225,207.072 127.236,191.458 127.236,166.561C127.236,150.371 106.646,143.083 82.874,141.215L82.874,141.215ZM105.521,178.953C102.275,189.657 89.446,199.205 69.617,199.205C49.79,199.205 36.96,189.657 33.714,178.953C30.086,166.986 49.79,158.7 69.617,158.7C89.446,158.7 109.149,166.986 105.521,178.953Z" style="fill:rgb(0,93,150);fill-rule:nonzero;"/>
            <path d="M96.613,214.036C88.57,216.131 79.488,217.191 69.616,217.191C59.747,217.191 50.664,216.131 42.622,214.036C34.366,211.888 27.159,208.643 21.203,204.39C19.771,203.368 18.415,202.292 17.135,201.159C23.553,220.285 37.863,240.216 69.618,240.216C101.376,240.216 115.686,220.283 122.104,201.157C120.824,202.29 119.465,203.368 118.034,204.39C112.076,208.643 104.871,211.888 96.613,214.036Z" style="fill:rgb(0,93,150);fill-rule:nonzero;"/>
        </g>
    </g>
</svg>
